X:6
T:Quick Step  
O:No 6 Page 3 William Clarke of Feltwell    MS 1858
N:Suggest fine at end of first section to give 32 bars.
I:abc2nwc
M:6/8
L:1/8
K:C
G|c2d e2g|fdB c2G|AcA BdB|cGE C2G|
c2d e2g|fdB c2G|AcA BdB|cdc c2"^*":||
:e/2c/2|ded d2B|ceg f2d|def ege|cde d c:|

